X:1
T:Title
%%score ( 1 2 ) { 3 | 4 }
L:1/8
Q:1/4=108
M:4/4
K:F
V:1 treble nm="Grand Piano, Unnamed-000"
V:2 treble 
V:3 treble nm="Choir Pad, Seymour, 77.77"
V:4 bass 
V:1
 [FA]2 [FG]2 [FB]2 [FA]2 | [_Ad]2 [=Ac][FA] [EG]4 | [FA]2 [FA]2 [EA]2 [_EA]2 | [DB]2 [CE]2 [CF]4 | %4
w: By~From~Carl~Maria~von~Weber,~1826 * * *||||
 [FA]2 [FG]2 [FB]2 [FA]2 | [_Ad]2 [=Ac][FA] [EG]4 | [FA]2 [Ac]2 cBAG | [CF]2 [CE]2 [CF]4- | %8
w: ||||
 [CF]4 z4 |] %9
w: |
V:2
 x8 | x8 | x8 | x8 | x8 | x8 | z4 G2 D2 | x8 | x8 |] %9
V:3
 C2 B,2 D2 C2 | =B,2 C2 C4 | C2 D2 ^C2 =C2 | B,2 B,2 A,4 | C2 B,2[K:treble] D2 C2 | =B,2 C2 C4 | %6
 C2 _E2 D2[K:bass] B,2 | A,2 G,2 A,4- | A,4 z4 |] %9
V:4
 F,2 F,2 F,2 F,2 | F,2 F,2 C,4 | F,2 D,2 A,,2 ^F,2 | G,2 C,2 F,4 | F,2 F,2 F,2 F,2 | F,2 F,2 C,4 | %6
 F,2 ^F,2 G,2 B,,2 | C,2 C,2 F,4- | F,4 z4 |] %9

